X:459
T: Xundian shange
N: C1494
O: China,Yunnan
S: II, 84]
R: Shange]
M: 2/4
L: 1/32
K: G
D4D2D2D4E2G2 | A2B2d8e4 | c4d2e2d4d4 |
A3Bd2e2B4B2A2G2A2B4 | A4AGAGE2D2E4 | D16 |
D4D4D2E2G2A2 | d4d4A8A2B2d8
e4 | d4d2d2B4B2A2G2A2B4 | A4A2G2E2D2E4 | D16

@@@ Tune index: 6460
